icons/calendar-cross-outline.svg

<svg xmlns="http://www.w3.org/2000/svg" width="24" height="24" viewBox="0 0 24 24">
  <path d="M16,1 C16.5128358,1 16.9355072,1.38604019 16.9932723,1.88337887 L17,2 L17,3 L18,3 C20.1421954,3 21.8910789,4.68396847 21.9951047,6.80035966 L22,7 L22,19 C22,21.1421954 20.3160315,22.8910789 18.1996403,22.9951047 L18,23 L6,23 C3.85780461,23 2.10892112,21.3160315 2.00489531,19.1996403 L2,19 L2,7 C2,4.85780461 3.68396847,3.10892112 5.80035966,3.00489531 L6,3 L7,3 L7,2 C7,1.44771525 7.44771525,1 8,1 C8.51283584,1 8.93550716,1.38604019 8.99327227,1.88337887 L9,2 L9,3 L15,3 L15,2 C15,1.44771525 15.4477153,1 16,1 Z M20,11 L4,11 L4,19 C4,20.0543618 4.81587779,20.9181651 5.85073766,20.9945143 L6,21 L18,21 C19.0543618,21 19.9181651,20.1841222 19.9945143,19.1492623 L20,19 L20,11 Z M10.6128994,13.2097046 L10.7071068,13.2928932 L12,14.585 L13.2928932,13.2928932 C13.6834175,12.9023689 14.3165825,12.9023689 14.7071068,13.2928932 C15.0675907,13.6533772 15.0953203,14.2206082 14.7902954,14.6128994 L14.7071068,14.7071068 L13.415,16 L14.7071068,17.2928932 C15.0976311,17.6834175 15.0976311,18.3165825 14.7071068,18.7071068 C14.3466228,19.0675907 13.7793918,19.0953203 13.3871006,18.7902954 L13.2928932,18.7071068 L12,17.415 L10.7071068,18.7071068 C10.3165825,19.0976311 9.68341751,19.0976311 9.29289322,18.7071068 C8.93240926,18.3466228 8.90467972,17.7793918 9.20970461,17.3871006 L9.29289322,17.2928932 L10.585,16 L9.29289322,14.7071068 C8.90236893,14.3165825 8.90236893,13.6834175 9.29289322,13.2928932 C9.65337718,12.9324093 10.2206082,12.9046797 10.6128994,13.2097046 Z M7,5 L6,5 C4.9456382,5 4.08183488,5.81587779 4.00548574,6.85073766 L4,7 L4,9 L20,9 L20,7 C20,5.9456382 19.1841222,5.08183488 18.1492623,5.00548574 L18,5 L17,5 L17,6 C17,6.55228475 16.5522847,7 16,7 C15.4871642,7 15.0644928,6.61395981 15.0067277,6.11662113 L15,6 L15,5 L9,5 L9,6 C9,6.55228475 8.55228475,7 8,7 C7.48716416,7 7.06449284,6.61395981 7.00672773,6.11662113 L7,6 L7,5 Z"/>
</svg>

<svg xmlns="http://www.w3.org/2000/svg" viewBox="0 0 24 24">
  <path d="M16 1a1 1 0 0 1 1 .88V3h1a4 4 0 0 1 4 3.8V19a4 4 0 0 1-3.8 4H6a4 4 0 0 1-4-3.8V7a4 4 0 0 1 3.8-4H7V2a1 1 0 0 1 2-.12V3h6V2a1 1 0 0 1 1-1zm4 10H4v8a2 2 0 0 0 1.85 2H18a2 2 0 0 0 2-1.85V11zm-9.39 2.21.1.08L12 14.6l1.3-1.3a1 1 0 0 1 1.49 1.32l-.08.1L13.4 16l1.3 1.3a1 1 0 0 1-1.32 1.49l-.1-.08L12 17.4l-1.3 1.3a1 1 0 0 1-1.49-1.32l.08-.1L10.6 16l-1.3-1.3a1 1 0 0 1 1.32-1.49zM7 5H6a2 2 0 0 0-2 1.85V9h16V7a2 2 0 0 0-1.85-2H17v1a1 1 0 0 1-2 .12V5H9v1a1 1 0 0 1-2 .12V5z"/>
</svg>
